packages/icons/svg/24/ErrorOctagon.svg

<svg width="24" height="24" viewBox="0 0 24 24" fill="none" xmlns="http://www.w3.org/2000/svg">
<path fill-rule="evenodd" clip-rule="evenodd" d="M6.99325 2.86461C7.54685 2.31101 8.2977 2 9.08061 2H14.9194C15.7023 2 16.4531 2.31101 17.0068 2.86461L21.1354 6.99325C21.689 7.54685 22 8.2977 22 9.08061V14.9194C22 15.7023 21.689 16.4531 21.1354 17.0068L17.0068 21.1354C16.4531 21.689 15.7023 22 14.9194 22H9.08061C8.2977 22 7.54685 21.689 6.99325 21.1354L2.86461 17.0068C2.31101 16.4531 2 15.7023 2 14.9194V9.08061C2 8.2977 2.31101 7.54685 2.86461 6.99325L6.99325 2.86461ZM8.2929 8.29289C8.68342 7.90237 9.31659 7.90237 9.70711 8.29289L12 10.5858L14.2929 8.29289C14.6834 7.90237 15.3166 7.90237 15.7071 8.29289C16.0976 8.68342 16.0976 9.31658 15.7071 9.70711L13.4142 12L15.7071 14.2929C16.0976 14.6834 16.0976 15.3166 15.7071 15.7071C15.3166 16.0976 14.6834 16.0976 14.2929 15.7071L12 13.4142L9.70711 15.7071C9.31659 16.0976 8.68342 16.0976 8.2929 15.7071C7.90237 15.3166 7.90237 14.6834 8.2929 14.2929L10.5858 12L8.2929 9.70711C7.90237 9.31658 7.90237 8.68342 8.2929 8.29289Z" fill="#858585"/>
</svg>

<svg width="24" height="24" fill="none" xmlns="http://www.w3.org/2000/svg" viewBox="0 0 24 24"><path fill-rule="evenodd" clip-rule="evenodd" d="M6.993 2.865A2.952 2.952 0 019.081 2h5.838c.783 0 1.534.311 2.088.865l4.128 4.128c.554.554.865 1.305.865 2.088v5.838c0 .783-.311 1.534-.865 2.088l-4.128 4.128a2.952 2.952 0 01-2.088.865H9.081a2.952 2.952 0 01-2.088-.865l-4.128-4.128A2.952 2.952 0 012 14.919V9.081c0-.783.311-1.534.865-2.088l4.128-4.128zm1.3 5.428a1 1 0 011.414 0L12 10.586l2.293-2.293a1 1 0 111.414 1.414L13.414 12l2.293 2.293a1 1 0 01-1.414 1.414L12 13.414l-2.293 2.293a1 1 0 01-1.414-1.414L10.586 12 8.293 9.707a1 1 0 010-1.414z" fill="currentColor"></path></svg>
